SVG_Azure_All/Chaos Experiment.svg

<?xml version="1.0" encoding="UTF-8" standalone="no"?>
<!-- Generated by Microsoft Visio, SVG Export Chaos Experiment.svg Page-1 -->

<svg
   xmlns:dc="http://purl.org/dc/elements/1.1/"
   xmlns:cc="http://creativecommons.org/ns#"
   xmlns:rdf="http://www.w3.org/1999/02/22-rdf-syntax-ns#"
   xmlns:svg="http://www.w3.org/2000/svg"
   xmlns="http://www.w3.org/2000/svg"
   xmlns:sodipodi="http://sodipodi.sourceforge.net/DTD/sodipodi-0.dtd"
   xmlns:inkscape="http://www.inkscape.org/namespaces/inkscape"
   width="0.62986362in"
   height="0.78754514in"
   viewBox="0 0 45.349924 56.70305"
   xml:space="preserve"
   class="st7"
   version="1.1"
   id="svg65"
   sodipodi:docname="Chaos Experiment.svg"
   style="font-size:12px;overflow:visible;color-interpolation-filters:sRGB;fill:none;fill-rule:evenodd;stroke-linecap:square;stroke-miterlimit:3"
   inkscape:version="0.92.5 (2060ec1f9f, 2020-04-08)"><metadata
   id="metadata69"><rdf:RDF><cc:Work
       rdf:about=""><dc:format>image/svg+xml</dc:format><dc:type
         rdf:resource="http://purl.org/dc/dcmitype/StillImage" /></cc:Work></rdf:RDF></metadata><sodipodi:namedview
   pagecolor="#ffffff"
   bordercolor="#666666"
   borderopacity="1"
   objecttolerance="10"
   gridtolerance="10"
   guidetolerance="10"
   inkscape:pageopacity="0"
   inkscape:pageshadow="2"
   inkscape:window-width="640"
   inkscape:window-height="480"
   id="namedview67"
   showgrid="false"
   inkscape:zoom="1.4191398"
   inkscape:cx="30.236119"
   inkscape:cy="37.790531"
   inkscape:window-x="0"
   inkscape:window-y="0"
   inkscape:window-maximized="0"
   inkscape:current-layer="svg65" />
	<style
   type="text/css"
   id="style2">
	<![CDATA[
		.st1 {fill:url(#grad0-6);stroke:none;stroke-linecap:butt;stroke-width:34}
		.st2 {fill:#a67af4;stroke:none;stroke-linecap:butt;stroke-width:34}
		.st3 {fill:#b796f9;stroke:none;stroke-linecap:butt;stroke-width:34}
		.st4 {fill:url(#grad0-14);stroke:none;stroke-linecap:butt;stroke-width:34}
		.st5 {fill:url(#grad0-18);stroke:none;stroke-linecap:butt;stroke-width:34}
		.st6 {fill:url(#grad0-22);stroke:none;stroke-linecap:butt;stroke-width:34}
		.st7 {fill:none;fill-rule:evenodd;font-size:12px;overflow:visible;stroke-linecap:square;stroke-miterlimit:3}
	]]>
	</style>

	<defs
   id="Patterns_And_Gradients">
		<linearGradient
   id="grad0-6"
   x1="-1.2173414e-05"
   y1="72.267875"
   x2="47.302951"
   y2="72.267875"
   gradientTransform="scale(0.95871421,1.0430637)"
   gradientUnits="userSpaceOnUse">
			<stop
   offset="0"
   stop-color="#a67af4"
   stop-opacity="1"
   id="stop4" />
			<stop
   offset="1"
   stop-color="#773adc"
   stop-opacity="1"
   id="stop6" />
		</linearGradient>
		<linearGradient
   id="grad0-14"
   x1="0.0027541262"
   y1="122.38613"
   x2="18.100075"
   y2="122.38613"
   gradientTransform="scale(1.1263433,0.88782882)"
   gradientUnits="userSpaceOnUse">
			<stop
   offset="0"
   stop-color="#773adc"
   stop-opacity="1"
   id="stop9" />
			<stop
   offset="1"
   stop-color="#ffffff"
   stop-opacity="1"
   id="stop11" />
		</linearGradient>
		<linearGradient
   id="grad0-18"
   x1="0.0018243735"
   y1="108.80607"
   x2="15.016687"
   y2="108.80607"
   gradientTransform="scale(0.99277484,1.0072777)"
   gradientUnits="userSpaceOnUse">
			<stop
   offset="0"
   stop-color="#773adc"
   stop-opacity="1"
   id="stop14" />
			<stop
   offset="1"
   stop-color="#ffffff"
   stop-opacity="1"
   id="stop16" />
		</linearGradient>
		<linearGradient
   id="grad0-22"
   x1="0"
   y1="343.00293"
   x2="14.274244"
   y2="343.00293"
   gradientTransform="scale(2.8646,0.34908888)"
   gradientUnits="userSpaceOnUse">
			<stop
   offset="0"
   stop-color="#773adc"
   stop-opacity="1"
   id="stop19" />
			<stop
   offset="1"
   stop-color="#ffffff"
   stop-opacity="1"
   id="stop21" />
		</linearGradient>
	</defs>
	<g
   id="g63"
   transform="translate(-34.000113,-34.001249)">
		<title
   id="title25">Page-1</title>
		<g
   id="group6785-1"
   transform="translate(34,-34.0157)">
			<title
   id="title27">Chaos Experiment</title>
			<g
   id="group6786-2">
				<title
   id="title29">Sheet.6786</title>
				<g
   id="shape6787-3">
					<title
   id="title31">Sheet.6787</title>
					<path
   d="m 1.75,75.38 h 41.86 a 1.74726,1.77352 0 0 1 1.74,1.78 v 45.79 a 1.74726,1.77352 0 0 1 -1.74,1.77 H 1.75 A 1.74726,1.77352 0 0 1 0,122.95 V 77.16 a 1.74726,1.77352 0 0 1 1.75,-1.78 z"
   class="st1"
   id="path33"
   inkscape:connector-curvature="0"
   style="fill:url(#grad0-6);stroke:none;stroke-width:34;stroke-linecap:butt" />
				</g>
				<g
   id="shape6788-7"
   transform="translate(2.83038,-3.01468)">
					<title
   id="title36">Sheet.6788</title>
					<path
   d="m 0,122.85 a 1.84972,1.87752 -180 0 0 1.85,1.87 h 36.12 a 1.84972,1.87752 -180 0 0 1.85,-1.87 V 83.29 A 1.84972,1.87752 -180 0 0 37.97,81.41 H 1.85 A 1.84972,1.87752 -180 0 0 0,83.29 Z"
   class="st2"
   id="path38"
   inkscape:connector-curvature="0"
   style="fill:#a67af4;stroke:none;stroke-width:34;stroke-linecap:butt" />
				</g>
				<g
   id="shape6789-9"
   transform="translate(10.617,-44.5744)">
					<title
   id="title41">Sheet.6789</title>
					<path
   d="m 15.59,116.56 a 3.5847732,3.6386513 -180 1 0 -7.14,-0.66 3.72418,3.78016 -180 0 0 0,0.66 H 1.55 A 1.53002,1.55301 -180 0 0 0,118.11 v 6.61 h 24.09 v -6.61 a 1.53312,1.55616 -180 0 0 -1.53,-1.57 h -6.97 z m -4.05,-1.76 a 1.79071,1.81763 0 0 1 2.21,1.26 1.89313,1.92158 0 0 1 0.06,0.5 h -0.04 a 1.77209,1.79872 0 0 1 -1.77,1.8 1.73795,1.76407 0 0 1 -0.68,-0.14 1.7845,1.81133 0 0 1 -1.01,-2.2 1.75968,1.78612 0 0 1 1.23,-1.22 z"
   class="st3"
   id="path43"
   inkscape:connector-curvature="0"
   style="fill:#b796f9;stroke:none;stroke-width:34;stroke-linecap:butt" />
				</g>
				<g
   id="shape6790-11"
   transform="translate(6.03697,-25.7076)">
					<title
   id="title46">Sheet.6790</title>
					<path
   d="m 7.17,124.46 -6.91,-7.11 a 0.878286,0.891487 0 0 1 0,-1.26005 L 2.5,113.85 a 0.878286,0.891487 0 0 1 1.24139,0 L 7.15,117.36 a 0.875183,0.888337 -180 0 0 1.24139,0 L 16.64,108.92 a 0.875183,0.888337 0 0 1 1.24139,0 l 2.24861,2.24 a 0.878286,0.891487 0 0 1 0,1.26005 L 8.42,124.46 a 0.875183,0.888337 0 0 1 -1.2476,0 z"
   class="st4"
   id="path48"
   inkscape:connector-curvature="0"
   style="fill:url(#grad0-14);stroke:none;stroke-width:34;stroke-linecap:butt" />
				</g>
				<g
   id="shape6791-15"
   transform="translate(25.3735,-7.63846)">
					<title
   id="title51">Sheet.6791</title>
					<path
   d="m 14.65,112.12 -2.23,-2.26 a 0.875183,0.888337 -180 0 0 -1.24139,0 L 8.07,113.01 a 0.872079,0.885187 0 0 1 -1.24139,0 L 3.73,109.86 a 0.875183,0.888337 -180 0 0 -1.24139,0 L 0.26,112.12 a 0.875183,0.888337 -180 0 0 0,1.26005 l 3.1,3.14995 a 0.875183,0.888337 0 0 1 0,1.26005 L 0.26,120.94 a 0.875183,0.888337 -180 0 0 0,1.26005 L 2.49,124.46 a 0.875183,0.888337 -180 0 0 1.24139,0 L 6.83,121.31 a 0.875183,0.888337 0 0 1 1.24139,0 l 3.10861,3.15 a 0.875183,0.888337 -180 0 0 1.24139,0 L 14.65,122.2 a 0.875183,0.888337 -180 0 0 0,-1.26005 L 11.54,117.79 a 0.88139,0.894637 0 0 1 0,-1.26005 L 14.65,113.38 a 0.875183,0.888337 -180 0 0 0,-1.26005 z"
   class="st5"
   id="path53"
   inkscape:connector-curvature="0"
   style="fill:url(#grad0-18);stroke:none;stroke-width:34;stroke-linecap:butt" />
				</g>
				<g
   id="shape6792-19"
   transform="rotate(-45.004,-4.848754,108.76338)">
					<title
   id="title56">Sheet.6792</title>
					<path
   d="m 0,123.83 a 0.878307,0.891508 -180 0 0 0.878286,0.89149 L 40.01,124.72 a 0.878307,0.891508 -180 0 0 0.878286,-0.89149 L 40.89,120.63 a 0.878307,0.891508 -180 0 0 -0.878286,-0.89149 L 0.88,119.74 a 0.878307,0.891508 -180 0 0 -0.878286,0.89149 z"
   class="st6"
   id="path58"
   inkscape:connector-curvature="0"
   style="fill:url(#grad0-22);stroke:none;stroke-width:34;stroke-linecap:butt" />
				</g>
			</g>
		</g>
	</g>
</svg>

<?xml version="1.0" encoding="UTF-8" standalone="no"?>
<!DOCTYPE svg PUBLIC "-//W3C//DTD SVG 1.1//EN" "http://www.w3.org/Graphics/SVG/1.1/DTD/svg11.dtd">
<!-- Generated by Microsoft Visio, SVG Export Chaos Experiment.svg Page-1 -->
<svg xmlns="http://www.w3.org/2000/svg" xmlns:xlink="http://www.w3.org/1999/xlink" xmlns:ev="http://www.w3.org/2001/xml-events"
		width="1.57437in" height="1.73227in" viewBox="0 0 113.354 124.723" xml:space="preserve" color-interpolation-filters="sRGB"
		class="st7">
	<style type="text/css">
	<![CDATA[
		.st1 {fill:url(#grad0-6);stroke:none;stroke-linecap:butt;stroke-width:34}
		.st2 {fill:#a67af4;stroke:none;stroke-linecap:butt;stroke-width:34}
		.st3 {fill:#b796f9;stroke:none;stroke-linecap:butt;stroke-width:34}
		.st4 {fill:url(#grad0-14);stroke:none;stroke-linecap:butt;stroke-width:34}
		.st5 {fill:url(#grad0-18);stroke:none;stroke-linecap:butt;stroke-width:34}
		.st6 {fill:url(#grad0-22);stroke:none;stroke-linecap:butt;stroke-width:34}
		.st7 {fill:none;fill-rule:evenodd;font-size:12px;overflow:visible;stroke-linecap:square;stroke-miterlimit:3}
	]]>
	</style>

	<defs id="Patterns_And_Gradients">
		<linearGradient id="grad0-6" x1="0" y1="0" x2="1" y2="0" gradientTransform="rotate(90 0.5 0.5)">
			<stop offset="0" stop-color="#a67af4" stop-opacity="1"/>
			<stop offset="1" stop-color="#773adc" stop-opacity="1"/>
		</linearGradient>
		<linearGradient id="grad0-14" x1="0" y1="0" x2="1" y2="0" gradientTransform="rotate(-57.913476717676 0.5 0.5)">
			<stop offset="0" stop-color="#773adc" stop-opacity="1"/>
			<stop offset="1" stop-color="#ffffff" stop-opacity="1"/>
		</linearGradient>
		<linearGradient id="grad0-18" x1="0" y1="0" x2="1" y2="0" gradientTransform="rotate(-87.787423541508 0.5 0.5)">
			<stop offset="0" stop-color="#773adc" stop-opacity="1"/>
			<stop offset="1" stop-color="#ffffff" stop-opacity="1"/>
		</linearGradient>
		<linearGradient id="grad0-22" x1="0" y1="0" x2="1" y2="0" gradientTransform="rotate(-37.41871625285 0.5 0.5)">
			<stop offset="0" stop-color="#773adc" stop-opacity="1"/>
			<stop offset="1" stop-color="#ffffff" stop-opacity="1"/>
		</linearGradient>
	</defs>
	<g>
		<title>Page-1</title>
		<g id="group6617-1" transform="translate(34,-34.0157)">
			<title>Chaos Experiment</title>
			<g id="group6618-2">
				<title>Sheet.6618</title>
				<g id="shape6619-3">
					<title>Sheet.6619</title>
					<path d="M1.75 75.38 L43.61 75.38 A1.74726 1.77352 0 0 1 45.35 77.16 L45.35 122.95 A1.74726 1.77352 0 0 1 43.61
								 124.72 L1.75 124.72 A1.74726 1.77352 0 0 1 -0 122.95 L0 77.16 A1.74726 1.77352 0 0 1 1.75 75.38
								 Z" class="st1"/>
				</g>
				<g id="shape6620-7" transform="translate(2.83038,-3.01468)">
					<title>Sheet.6620</title>
					<path d="M0 122.85 A1.84972 1.87752 -180 0 0 1.85 124.72 L37.97 124.72 A1.84972 1.87752 -180 0 0 39.82 122.85
								 L39.82 83.29 A1.84972 1.87752 -180 0 0 37.97 81.41 L1.85 81.41 A1.84972 1.87752 -180 0 0 -0 83.29
								 L0 122.85 Z" class="st2"/>
				</g>
				<g id="shape6621-9" transform="translate(10.617,-44.5744)">
					<title>Sheet.6621</title>
					<path d="M15.59 116.56 A3.58357 3.63743 -180 1 0 8.45 115.9 A3.72418 3.78016 -180 0 0 8.45 116.56 L1.55 116.56
								 A1.53002 1.55301 -180 0 0 -0 118.11 L0 124.72 L24.09 124.72 L24.09 118.11 A1.53312 1.55616 -180
								 0 0 22.56 116.54 L15.59 116.54 L15.59 116.56 ZM11.54 114.8 A1.79071 1.81763 0 0 1 13.75 116.06 A1.89313
								 1.92158 0 0 1 13.81 116.56 L13.77 116.56 A1.77209 1.79872 0 0 1 12 118.36 A1.73795 1.76407 0 0 1
								 11.32 118.22 A1.7845 1.81133 0 0 1 10.31 116.02 A1.75968 1.78612 0 0 1 11.54 114.8 Z" class="st3"/>
				</g>
				<g id="shape6622-11" transform="translate(6.03697,-25.7076)">
					<title>Sheet.6622</title>
					<path d="M7.17 124.46 L0.26 117.35 a0.878286 0.891487 0 0 1 -8.10463E-15 -1.26005 L2.5 113.85 a0.878286 0.891487
								 0 0 1 1.24139 0 L7.15 117.36 a0.875183 0.888337 -180 0 0 1.24139 0 L16.64 108.92 a0.875183 0.888337
								 0 0 1 1.24139 2.84217E-14 L20.13 111.16 a0.878286 0.891487 0 0 1 1.42109E-14 1.26005 L8.42 124.46
								 a0.875183 0.888337 0 0 1 -1.2476 0 Z" class="st4"/>
				</g>
				<g id="shape6623-15" transform="translate(25.3735,-7.63846)">
					<title>Sheet.6623</title>
					<path d="M14.65 112.12 L12.42 109.86 a0.875183 0.888337 -180 0 0 -1.24139 1.42109E-14 L8.07 113.01 a0.872079
								 0.885187 0 0 1 -1.24139 0 L3.73 109.86 a0.875183 0.888337 -180 0 0 -1.24139 -1.42109E-14 L0.26 112.12
								 a0.875183 0.888337 -180 0 0 -1.37668E-14 1.26005 L3.36 116.53 a0.875183 0.888337 0 0 1 -1.77636E-15
								 1.26005 L0.26 120.94 a0.875183 0.888337 -180 0 0 -8.65974E-15 1.26005 L2.49 124.46 a0.875183 0.888337
								 -180 0 0 1.24139 0 L6.83 121.31 a0.875183 0.888337 0 0 1 1.24139 -1.42109E-14 L11.18 124.46 a0.875183
								 0.888337 -180 0 0 1.24139 0 L14.65 122.2 a0.875183 0.888337 -180 0 0 0 -1.26005 L11.54 117.79 a0.88139
								 0.894637 0 0 1 -8.88178E-15 -1.26005 L14.65 113.38 a0.875183 0.888337 -180 0 0 1.77636E-15 -1.26005
								 Z" class="st5"/>
				</g>
				<g id="shape6624-19" transform="translate(-78.3331,28.4326) rotate(-45.004)">
					<title>Sheet.6624</title>
					<path d="M0 123.83 a0.878307 0.891508 -180 0 0 0.878286 0.891487 L40.01 124.72 a0.878307 0.891508 -180 0 0 0.878286
								 -0.891487 L40.89 120.63 a0.878307 0.891508 -180 0 0 -0.878286 -0.891487 L0.88 119.74 a0.878307 0.891508
								 -180 0 0 -0.878286 0.891487 L0 123.83 Z" class="st6"/>
				</g>
			</g>
		</g>
	</g>
</svg>
